packages/kaspersky-hexa-ui-icons/src/iconsSVGs/24/StatusLevelEmpty.svg

<svg width="24" height="24" viewBox="0 0 24 24" fill="none" xmlns="http://www.w3.org/2000/svg">
<path fill-rule="evenodd" clip-rule="evenodd" d="M2 5C2 3.89543 2.89543 3 4 3H20C21.1046 3 22 3.89543 22 5C22 6.10457 21.1046 7 20 7H4C2.89543 7 2 6.10457 2 5ZM4 4H20C20.5523 4 21 4.44772 21 5C21 5.55228 20.5523 6 20 6H4C3.44772 6 3 5.55228 3 5C3 4.44772 3.44772 4 4 4Z" fill="black"/>
<path fill-rule="evenodd" clip-rule="evenodd" d="M2 10C2 8.89543 2.89543 8 4 8H20C21.1046 8 22 8.89543 22 10C22 11.1046 21.1046 12 20 12H4C2.89543 12 2 11.1046 2 10ZM4 9H20C20.5523 9 21 9.44772 21 10C21 10.5523 20.5523 11 20 11H4C3.44772 11 3 10.5523 3 10C3 9.44772 3.44772 9 4 9Z" fill="black"/>
<path fill-rule="evenodd" clip-rule="evenodd" d="M4 13C2.89543 13 2 13.8954 2 15C2 16.1046 2.89543 17 4 17H20C21.1046 17 22 16.1046 22 15C22 13.8954 21.1046 13 20 13H4ZM20 14H4C3.44772 14 3 14.4477 3 15C3 15.5523 3.44772 16 4 16H20C20.5523 16 21 15.5523 21 15C21 14.4477 20.5523 14 20 14Z" fill="black"/>
<path fill-rule="evenodd" clip-rule="evenodd" d="M2 20C2 18.8954 2.89543 18 4 18H20C21.1046 18 22 18.8954 22 20C22 21.1046 21.1046 22 20 22H4C2.89543 22 2 21.1046 2 20ZM4 19H20C20.5523 19 21 19.4477 21 20C21 20.5523 20.5523 21 20 21H4C3.44772 21 3 20.5523 3 20C3 19.4477 3.44772 19 4 19Z" fill="black"/>
</svg>

<svg xmlns="http://www.w3.org/2000/svg" width="24" height="24" fill="none" viewBox="0 0 24 24"><path fill="#000" fill-rule="evenodd" d="M2 5c0-1.1046.8954-2 2-2h16c1.1046 0 2 .8954 2 2s-.8954 2-2 2H4c-1.1046 0-2-.8954-2-2m2-1h16c.5523 0 1 .4477 1 1s-.4477 1-1 1H4c-.5523 0-1-.4477-1-1s.4477-1 1-1m-2 6c0-1.1046.8954-2 2-2h16c1.1046 0 2 .8954 2 2s-.8954 2-2 2H4c-1.1046 0-2-.8954-2-2m2-1h16c.5523 0 1 .4477 1 1s-.4477 1-1 1H4c-.5523 0-1-.4477-1-1s.4477-1 1-1m0 4c-1.1046 0-2 .8954-2 2s.8954 2 2 2h16c1.1046 0 2-.8954 2-2s-.8954-2-2-2zm16 1H4c-.5523 0-1 .4477-1 1s.4477 1 1 1h16c.5523 0 1-.4477 1-1s-.4477-1-1-1M2 20c0-1.1046.8954-2 2-2h16c1.1046 0 2 .8954 2 2s-.8954 2-2 2H4c-1.1046 0-2-.8954-2-2m2-1h16c.5523 0 1 .4477 1 1s-.4477 1-1 1H4c-.5523 0-1-.4477-1-1s.4477-1 1-1"/></svg>
